X:1
T:Title
%%score { ( 1 4 ) | ( 2 3 ) }
L:1/8
Q:1/4=100
M:6/8
K:F
V:1 treble nm="Grand Piano"
V:4 treble 
V:2 bass 
V:3 bass 
V:1
 F2 F F2 G | A2 A A2 B | [B,EG]2 [A,F] [B,EG]2 [A,EA] | F3 .C3 | F2 F F2 G | A2 A A2 B | %6
w: Miss~Pears * * *||||||
 [B,EG]2 [A,F] [B,EG]2 [A,EA] | [A,F]6 | [CAc]2 [CAc] [DBd]2 [DBd] | [CAc]6 | %10
w: ||||
 [CAc]2 [CAc] [DBd]2 [DBd] | [CAc]6 | A2 A AGA |[M:7/8] [FB]2 [Fc] [Fd]3 [Fd] | %14
w: ||||
[M:3/4] cB [FA][GB] A[B,EG] | [A,F]6 |] %16
w: ||
V:2
 [F,A,C]2 [F,A,C] [F,A,C]2 [F,B,F] | [F,CF]2 [F,CF] [F,CF]2 [F,DF] | C,2 C, C,2 C, | C3 z3 | %4
 [F,A,C]2 [F,A,C] [F,A,C]2 [F,B,F] | [F,CF]2 [F,CF] [F,CF]2 [F,DF] | C,2 C, C,2 C, | F,6 | %8
 F,2 F, F,2 F, | F,6 | F,2 F, F,2 F, | F,6 | [F,CF]2 [F,CF] FE[F,CF] | %13
[M:7/8][K:bass] [D,B,]2 [C,A,] [B,,B,]3 [B,,C] |[M:3/4] .A,2 z .[C,C]3 | F,6 |] %16
V:3
 x6 | x6 | x6 | [F,A,]6 | x6 | x6 | x6 | x6 | x6 | x6 | x6 | x6 | z3 .[F,C]3 |[M:7/8][K:bass] x7 | %14
[M:3/4] C,-[C,G,] .[C,F,]2 FC, | x6 |] %16
V:4
 x6 | x6 | x6 | x6 | x6 | x6 | x6 | x6 | x6 | x6 | x6 | x6 | x6 |[M:7/8] x7 |[M:3/4] F2 z2 z2 | %15
 x6 |] %16

